src/assets/icons/icon-linkedin.svg

<svg width="41" height="40" viewBox="0 0 41 40" fill="none" xmlns="http://www.w3.org/2000/svg">
<path fill-rule="evenodd" clip-rule="evenodd" d="M10.3319 8.02247C9.29037 8.14671 8.47121 8.81465 8.13898 9.81048C8.04049 10.1057 8.02654 10.2154 8.02654 10.6952C8.02654 11.1774 8.04024 11.284 8.14106 11.5866C8.34762 12.2064 8.75595 12.6908 9.30224 12.9642C9.73894 13.1827 10.062 13.2534 10.6286 13.2542C11.4673 13.2556 12.0739 13.0303 12.5821 12.529C13.1057 12.0124 13.3279 11.3776 13.2888 10.5103C13.2516 9.68767 12.9935 9.08984 12.4705 8.61486C11.9573 8.14878 11.1494 7.92498 10.3319 8.02247ZM8 23.229V31.8235H10.6498H13.2997V23.229V14.6344H10.6498H8V23.229ZM25.5102 14.9715C24.7448 15.0324 24.0063 15.2211 23.2744 15.5428C22.6207 15.83 21.6885 16.5913 21.199 17.2376C21.0696 17.4085 20.9492 17.5325 20.9314 17.5132C20.9137 17.4939 20.8569 16.9853 20.8052 16.3828C20.7534 15.7803 20.6975 15.273 20.6809 15.2555C20.6643 15.2379 19.5834 15.2284 18.279 15.2344L15.9071 15.2453L15.915 15.9826C15.9194 16.3881 15.9432 17.6764 15.968 18.8456C15.9928 20.0148 16.0131 23.4132 16.0131 26.3975V31.8235H18.6618H21.3105L21.3239 26.7995C21.3372 21.7981 21.3377 21.774 21.4288 21.4595C21.5588 21.0103 21.9143 20.3339 22.1967 19.9981C22.6628 19.4439 23.185 19.1848 23.8991 19.1535C25.3461 19.09 26.2558 19.9314 26.5973 21.6491C26.6664 21.9966 26.6738 22.4367 26.6867 26.9259L26.7006 31.8235H29.3503H32L31.9857 26.315C31.9701 20.2833 31.9839 20.6305 31.7147 19.5004C31.1154 16.9853 29.4945 15.3878 27.1854 15.0366C26.6725 14.9586 26.0006 14.9325 25.5102 14.9715Z" fill="white"/>
</svg>

<svg width="41" height="40" fill="none" xmlns="http://www.w3.org/2000/svg"><path fill-rule="evenodd" clip-rule="evenodd" d="M10.332 8.022A2.585 2.585 0 0 0 8.139 9.81c-.099.296-.112.405-.112.885 0 .482.013.589.114.892.207.62.615 1.104 1.161 1.377.437.219.76.29 1.327.29.838.002 1.445-.224 1.953-.725.524-.517.746-1.151.707-2.019-.037-.822-.296-1.42-.819-1.895-.513-.466-1.32-.69-2.138-.593ZM8 23.23v8.595h5.3v-17.19H8v8.595Zm17.51-8.257a6.85 6.85 0 0 0-2.236.57c-.653.288-1.585 1.05-2.075 1.696-.13.17-.25.294-.268.275-.017-.02-.074-.528-.126-1.13-.052-.603-.107-1.11-.124-1.127-.017-.018-1.098-.028-2.402-.022l-2.372.011.008.738c.004.405.028 1.693.053 2.863.025 1.169.045 4.567.045 7.552v5.425h5.298l.013-5.024c.013-5 .014-5.025.105-5.34.13-.449.485-1.125.768-1.46.466-.555.988-.814 1.702-.845 1.447-.064 2.357.777 2.698 2.495.07.348.077.788.09 5.277l.014 4.898H32l-.014-5.509c-.016-6.032-.002-5.684-.271-6.815-.6-2.515-2.22-4.112-4.53-4.463a8.094 8.094 0 0 0-1.675-.066Z" fill="#fff"/></svg>
